X:1
T:Title
%%score { ( 1 3 ) | ( 2 4 ) }
L:1/8
Q:1/4=100
M:4/4
K:Eb
V:1 treble nm="Grand Piano"
V:3 treble 
V:2 bass 
V:4 bass 
V:1
 E2 E2 F2 G2 | c2 B2 [_DB]2 [CA]2 | G2 F2 B2 G2 | E2 [CF]2 [=B,DG]4 | %4
w: J.~Barnby * * *||||
 [CE]2 [G,E]2 [B,DF]2 [B,EG]2 | [Ec]2 [_DEB]2 [DEB]2 [CEA]2 | [CEc]2 [DFc]2 [EGc]2 [EG]2 | %7
w: |||
 [DF=A]2 [DF=B]2 [CEc]4 | [_DGB]2 [C_G=A]2 [D=Gc]2 [DGB]2 | [B,_DG]2 [G,DE]2 [A,CF]2 [A,CE]2 | %10
w: |||
 [CEA]2 [B,EG]2 [=A,EF]2 [B,EG]2 | [CEF]2 [=A,Ec]2 [DB]4 | E2 E2 [DF]2 G2 | c2 B2 [_DB]2 [CA]2 | %14
w: ||||
 [Cc]2 [Ec]2 [Ee]2 [EB]2 |[M:8/4] [A,DG]3 [A,DF] [G,E]4 z8 |[M:4/4] [CEA]8 | [B,EG]8 |] %18
w: ||||
V:2
 [E,G,]2 [E,G,]2 [E,A,E]2 [E,B,E]2 | [E,E]2 [E,G,_D]2 [A,,G,]2 [A,,A,]2 | %2
 [A,B,D]2 [A,B,D]2 [G,B,E]2 [E,B,E]2 | [C,C]2 A,,2 G,,4 | C,2 C,2 B,,2 E,2 | E,2 E,2 A,,2 A,,2 | %6
 A,2 A,2 G,2 G,2 | G,2 G,2 C,4 | E,2 E,2 E,2 E,2 | E,2 E,2 A,,2 A,,2 | A,,2 B,,2 C,2 B,,2 | %11
 =A,,2 F,,2 z2 A,2 | G,2 [C,G,]2 [B,,B,]2 [E,B,E]2 | [E,A,_D]2 [E,G,D]2 [A,,G,]2 [A,,A,]2 | %14
 [G,,E,]2 [=A,,F,]2 [B,,G,]2 [B,,G,]2 |[M:8/4] B,,3 B,, E,4 z8 |[M:4/4] A,,8 | E,8 |] %18
V:3
 x8 | x8 | x8 | x8 | x8 | x8 | x8 | x8 | x8 | x8 | x8 | z4 B,2 z2 | x8 | x8 | x8 |[M:8/4] x16 | %16
[M:4/4] x8 | x8 |] %18
V:4
 x8 | x8 | x8 | x8 | x8 | x8 | x8 | x8 | x8 | x8 | x8 | z4 B,,4 | x8 | x8 | x8 |[M:8/4] x16 | %16
[M:4/4] x8 | x8 |] %18

